X: 13022
T: Finbarr Dwyer's
R: reel
M: 4/4
K: Gmajor
|:F|GB~B2 AGEG|DEGe dBAB|GD~D2 B,DGA|BGdB G3A|
BGBd gdBd|c2BG AGEF|GEDB, G,DBe|dBAB G3:|
|:^c|dB~B2 GB~B2|dBcB AGFA|DEFG ABcA|dec2 AGFA|
G2BG DCB,D|GBdB cBAc|B/c/dgd BGDB|cedc BGA:|

